; generated by PrusaSlicer 2.2.0+linux-x64 on 2020-09-10 at 16:26:07 UTC

; 

; external perimeters extrusion width = 0.45mm
; perimeters extrusion width = 0.45mm
; infill extrusion width = 0.45mm
; solid infill extrusion width = 0.45mm
; top infill extrusion width = 0.40mm
; first layer extrusion width = 0.42mm

M201 X500 Y500 Z100 E5000 ; sets maximum accelerations, mm/sec^2
M203 X500 Y500 Z10 E60 ; sets maximum feedrates, mm/sec
M204 P500 R1000 T500 ; sets acceleration (P, T) and retract acceleration (R), mm/sec^2
M205 X8.00 Y8.00 Z0.40 E5.00 ; sets the jerk limits, mm/sec
M205 S0 T0 ; sets the minimum extruding and travel feed rate, mm/sec
M107
G90 ; use absolute coordinates
M83 ; extruder relative mode
M104 S200 ; set extruder temp
M140 S60 ; set bed temp
M190 S60 ; wait for bed temp
M109 S200 ; wait for extruder temp
G28 ; home all
G1 Z2 F240
G1 X2 Y10 F3000
G1 Z0.28 F240
G92 E0.0
G1 Y190 E15.0 F1500.0 ; intro line
G1 X2.3 F5000
G1 Y10 E30 F1200.0 ; intro line
G92 E0.0
G21 ; set units to millimeters
G90 ; use absolute coordinates
M83 ; use relative distances for extrusion
; Filament gcode
;BEFORE_LAYER_CHANGE
;0.35


G1 E-5.00000 F3600.00000
G1 Z0.350 F7800.000
;AFTER_LAYER_CHANGE
;0.35
G1 X87.642 Y80.678
G1 E5.00000 F2400.00000
G1 F1800.000
G1 X88.832 Y79.731 E0.07635
G1 X90.206 Y79.093 E0.07602
G1 X91.692 Y78.798 E0.07602
G1 X127.831 Y78.780 E1.81369
G1 X129.037 Y78.896 E0.06081
G1 X130.199 Y79.240 E0.06081
G1 X131.269 Y79.796 E0.06050
G1 X132.233 Y80.555 E0.06159
G1 X133.085 Y81.544 E0.06550
G1 X133.702 Y82.608 E0.06170
G1 X134.128 Y83.793 E0.06323
G1 X134.325 Y84.973 E0.06003
G1 X134.344 Y105.624 E1.03640
G1 X133.340 Y134.737 E1.46192
G1 X133.251 Y135.627 E0.04486
G1 X133.048 Y136.493 E0.04469
G1 X132.722 Y137.349 E0.04594
G1 X132.334 Y138.079 E0.04151
G1 X131.324 Y139.355 E0.08163
G1 X130.118 Y140.301 E0.07695
G1 X128.696 Y140.939 E0.07819
G1 X127.162 Y141.210 E0.07819
G1 X93.014 Y141.222 E1.71375
G1 X92.178 Y141.145 E0.04213
G1 X91.366 Y140.961 E0.04182
G1 X90.584 Y140.671 E0.04182
G1 X89.842 Y140.278 E0.04213
G1 X89.168 Y139.799 E0.04151
G1 X88.552 Y139.226 E0.04224
G1 X87.587 Y137.948 E0.08038
G1 X86.946 Y136.473 E0.08066
G1 X86.755 Y135.667 E0.04160
G1 X86.665 Y134.845 E0.04150
G1 X85.656 Y105.632 E1.46697
G1 X85.655 Y85.500 E1.01032
G1 X85.728 Y84.506 E0.05000
G1 X85.928 Y83.591 E0.04704
G1 X86.231 Y82.755 E0.04462
G1 X86.676 Y81.904 E0.04815
G1 X87.605 Y80.725 E0.07533
G1 E-3.50000 F3600.00000
G1 F6240.000
G1 X88.832 Y79.731 E-0.86582
G1 X89.758 Y79.301 E-0.55918
G1 E-0.07500 F3600.00000
G1 X125.900 Y133.779 F7800.000
G1 E5.00000 F2400.00000
G1 F1800.000
G1 X94.100 Y133.779 E1.59593
G1 X94.100 Y117.224 E0.83083
G1 X125.900 Y117.224 E1.59593
G1 X125.900 Y133.719 E0.82782
G1 X126.245 Y134.124 F7800.000
G1 F1800.000
G1 X93.755 Y134.124 E1.63055
G1 X93.755 Y116.879 E0.86545
G1 X126.245 Y116.879 E1.63055
G1 X126.245 Y134.064 E0.86244
G1 X126.590 Y134.469 F7800.000
G1 F1800.000
G1 X93.410 Y134.469 E1.66517
G1 X93.410 Y116.535 E0.90007
G1 X126.590 Y116.535 E1.66517
G1 X126.590 Y134.409 E0.89705
G1 X126.195 Y134.403 F7800.000
G1 E-3.50000 F3600.00000
G1 F6240.000
G1 X123.990 Y134.414 E-1.42500
G1 E-0.07500 F3600.00000
G1 X94.904 Y133.676 F7800.000
G1 E5.00000 F2400.00000
G1 F1800.000
G1 X94.358 Y133.131 E0.03886
G1 X94.358 Y132.641 E0.02470
G1 X95.238 Y133.521 E0.06272
G1 X95.728 Y133.521 E0.02470
G1 X94.358 Y132.151 E0.09765
G1 X94.358 Y131.661 E0.02470
G1 X96.218 Y133.521 E0.13257
G1 X96.708 Y133.521 E0.02470
G1 X94.358 Y131.171 E0.16749
G1 X94.358 Y130.681 E0.02470
G1 X97.198 Y133.521 E0.20242
G1 X97.688 Y133.521 E0.02470
G1 X94.358 Y130.191 E0.23734
G1 X94.358 Y129.701 E0.02470
G1 X98.178 Y133.521 E0.27227
G1 X98.668 Y133.521 E0.02470
G1 X94.358 Y129.212 E0.30719
G1 X94.358 Y128.722 E0.02470
G1 X99.157 Y133.521 E0.34211
G1 X99.647 Y133.521 E0.02470
G1 X94.358 Y128.232 E0.37704
G1 X94.358 Y127.742 E0.02470
G1 X100.137 Y133.521 E0.41196
G1 X100.627 Y133.521 E0.02470
G1 X94.358 Y127.252 E0.44689
G1 X94.358 Y126.762 E0.02470
G1 X101.117 Y133.521 E0.48181
G1 X101.607 Y133.521 E0.02470
G1 X94.358 Y126.272 E0.51674
G1 X94.358 Y125.782 E0.02470
G1 X102.097 Y133.521 E0.55166
G1 X102.587 Y133.521 E0.02470
G1 X94.358 Y125.292 E0.58658
G1 X94.358 Y124.802 E0.02470
G1 X103.077 Y133.521 E0.62151
G1 X103.567 Y133.521 E0.02470
G1 X94.358 Y124.312 E0.65643
G1 X94.358 Y123.823 E0.02470
G1 X104.057 Y133.521 E0.69136
G1 X104.546 Y133.521 E0.02470
G1 X94.358 Y123.333 E0.72628
G1 X94.358 Y122.843 E0.02470
G1 X105.036 Y133.521 E0.76120
G1 X105.526 Y133.521 E0.02470
G1 X94.358 Y122.353 E0.79613
G1 X94.358 Y121.863 E0.02470
G1 X106.016 Y133.521 E0.83105
G1 X106.506 Y133.521 E0.02470
G1 X94.358 Y121.373 E0.86598
G1 X94.358 Y120.883 E0.02470
G1 X106.996 Y133.521 E0.90090
G1 X107.486 Y133.521 E0.02470
G1 X94.358 Y120.393 E0.93582
G1 X94.358 Y119.903 E0.02470
G1 X107.976 Y133.521 E0.97075
G1 X108.466 Y133.521 E0.02470
G1 X94.358 Y119.413 E1.00567
G1 X94.358 Y118.924 E0.02470
G1 X108.956 Y133.521 E1.04060
G1 X109.445 Y133.521 E0.02470
G1 X94.358 Y118.434 E1.07552
G1 X94.358 Y117.944 E0.02470
G1 X109.935 Y133.521 E1.11045
G1 X110.425 Y133.521 E0.02470
G1 X94.388 Y117.483 E1.14329
G1 X94.877 Y117.483 E0.02470
G1 X110.915 Y133.521 E1.14329
G1 X111.405 Y133.521 E0.02470
G1 X95.367 Y117.483 E1.14329
G1 X95.857 Y117.483 E0.02470
G1 X111.895 Y133.521 E1.14329
G1 X112.385 Y133.521 E0.02470
G1 X96.347 Y117.483 E1.14329
G1 X96.837 Y117.483 E0.02470
G1 X112.875 Y133.521 E1.14329
G1 X113.365 Y133.521 E0.02470
G1 X97.327 Y117.483 E1.14329
G1 X97.817 Y117.483 E0.02470
G1 X113.855 Y133.521 E1.14329
G1 X114.345 Y133.521 E0.02470
G1 X98.307 Y117.483 E1.14329
G1 X98.797 Y117.483 E0.02470
G1 X114.834 Y133.521 E1.14329
G1 X115.324 Y133.521 E0.02470
G1 X99.287 Y117.483 E1.14329
G1 X99.776 Y117.483 E0.02470
G1 X115.814 Y133.521 E1.14329
G1 X116.304 Y133.521 E0.02470
G1 X100.266 Y117.483 E1.14329
G1 X100.756 Y117.483 E0.02470
G1 X116.794 Y133.521 E1.14329
G1 X117.284 Y133.521 E0.02470
G1 X101.246 Y117.483 E1.14329
G1 X101.736 Y117.483 E0.02470
G1 X117.774 Y133.521 E1.14329
G1 X118.264 Y133.521 E0.02470
G1 X102.226 Y117.483 E1.14329
G1 X102.716 Y117.483 E0.02470
G1 X118.754 Y133.521 E1.14329
G1 X119.244 Y133.521 E0.02470
G1 X103.206 Y117.483 E1.14329
G1 X103.696 Y117.483 E0.02470
G1 X119.733 Y133.521 E1.14329
G1 X120.223 Y133.521 E0.02470
G1 X104.186 Y117.483 E1.14329
G1 X104.676 Y117.483 E0.02470
G1 X120.713 Y133.521 E1.14329
G1 X121.203 Y133.521 E0.02470
G1 X105.165 Y117.483 E1.14329
G1 X105.655 Y117.483 E0.02470
G1 X121.693 Y133.521 E1.14329
G1 X122.183 Y133.521 E0.02470
G1 X106.145 Y117.483 E1.14329
G1 X106.635 Y117.483 E0.02470
G1 X122.673 Y133.521 E1.14329
G1 X123.163 Y133.521 E0.02470
G1 X107.125 Y117.483 E1.14329
G1 X107.615 Y117.483 E0.02470
G1 X123.653 Y133.521 E1.14329
G1 X124.143 Y133.521 E0.02470
G1 X108.105 Y117.483 E1.14329
G1 X108.595 Y117.483 E0.02470
G1 X124.633 Y133.521 E1.14329
G1 X125.122 Y133.521 E0.02470
G1 X109.085 Y117.483 E1.14329
G1 X109.575 Y117.483 E0.02470
G1 X125.612 Y133.521 E1.14329
G1 X125.642 Y133.521 E0.00147
G1 X125.642 Y133.060 E0.02322
G1 X110.064 Y117.483 E1.11045
G1 X110.554 Y117.483 E0.02470
G1 X125.642 Y132.570 E1.07553
G1 X125.642 Y132.080 E0.02470
G1 X111.044 Y117.483 E1.04060
G1 X111.534 Y117.483 E0.02470
G1 X125.642 Y131.590 E1.00568
G1 X125.642 Y131.100 E0.02470
G1 X112.024 Y117.483 E0.97076
G1 X112.514 Y117.483 E0.02470
G1 X125.642 Y130.610 E0.93583
G1 X125.642 Y130.121 E0.02470
G1 X113.004 Y117.483 E0.90091
G1 X113.494 Y117.483 E0.02470
G1 X125.642 Y129.631 E0.86598
G1 X125.642 Y129.141 E0.02470
G1 X113.984 Y117.483 E0.83106
G1 X114.474 Y117.483 E0.02470
G1 X125.642 Y128.651 E0.79614
G1 X125.642 Y128.161 E0.02470
G1 X114.964 Y117.483 E0.76121
G1 X115.453 Y117.483 E0.02470
G1 X125.642 Y127.671 E0.72629
G1 X125.642 Y127.181 E0.02470
G1 X115.943 Y117.483 E0.69136
G1 X116.433 Y117.483 E0.02470
G1 X125.642 Y126.691 E0.65644
G1 X125.642 Y126.201 E0.02470
G1 X116.923 Y117.483 E0.62151
G1 X117.413 Y117.483 E0.02470
G1 X125.642 Y125.711 E0.58659
G1 X125.642 Y125.222 E0.02470
G1 X117.903 Y117.483 E0.55167
G1 X118.393 Y117.483 E0.02470
G1 X125.642 Y124.732 E0.51674
G1 X125.642 Y124.242 E0.02470
G1 X118.883 Y117.483 E0.48182
G1 X119.373 Y117.483 E0.02470
G1 X125.642 Y123.752 E0.44689
G1 X125.642 Y123.262 E0.02470
G1 X119.863 Y117.483 E0.41197
G1 X120.352 Y117.483 E0.02470
G1 X125.642 Y122.772 E0.37705
G1 X125.642 Y122.282 E0.02470
G1 X120.842 Y117.483 E0.34212
G1 X121.332 Y117.483 E0.02470
G1 X125.642 Y121.792 E0.30720
G1 X125.642 Y121.302 E0.02470
G1 X121.822 Y117.483 E0.27227
G1 X122.312 Y117.483 E0.02470
G1 X125.642 Y120.812 E0.23735
G1 X125.642 Y120.322 E0.02470
G1 X122.802 Y117.483 E0.20243
G1 X123.292 Y117.483 E0.02470
G1 X125.642 Y119.833 E0.16750
G1 X125.642 Y119.343 E0.02470
G1 X123.782 Y117.483 E0.13258
G1 X124.272 Y117.483 E0.02470
G1 X125.642 Y118.853 E0.09765
G1 X125.642 Y118.363 E0.02470
G1 X124.762 Y117.483 E0.06273
G1 X125.252 Y117.483 E0.02470
G1 X125.797 Y118.028 E0.03887
G1 E-3.50000 F3600.00000
G1 F6240.000
G1 X125.252 Y117.483 E-0.42261
G1 X124.762 Y117.483 E-0.26851
G1 X125.642 Y118.363 E-0.68204
G1 X125.642 Y118.457 E-0.05184
G1 E-0.07500 F3600.00000
G1 X126.900 Y104.778 F7800.000
G1 E5.00000 F2400.00000
G1 F1800.000
G1 X93.100 Y104.778 E1.69631
G1 X93.100 Y86.224 E0.93115
G1 X126.900 Y86.224 E1.69631
G1 X126.900 Y104.718 E0.92814
G1 X127.245 Y105.123 F7800.000
G1 F1800.000
G1 X92.755 Y105.123 E1.73092
G1 X92.755 Y85.879 E0.96577
G1 X127.245 Y85.879 E1.73092
G1 X127.245 Y105.063 E0.96276
G1 X127.590 Y105.468 F7800.000
G1 F1800.000
G1 X92.410 Y105.468 E1.76554
G1 X92.410 Y85.535 E1.00039
G1 X127.590 Y85.535 E1.76554
G1 X127.590 Y105.408 E0.99738
G1 X127.196 Y105.400 F7800.000
G1 E-3.50000 F3600.00000
G1 F6240.000
G1 X124.990 Y105.413 E-1.42500
G1 E-0.07500 F3600.00000
G1 X93.905 Y104.675 F7800.000
G1 E5.00000 F2400.00000
G1 F1800.000
G1 X93.358 Y104.129 E0.03900
G1 X93.358 Y103.638 E0.02477
G1 X94.240 Y104.520 E0.06296
G1 X94.731 Y104.520 E0.02477
G1 X93.358 Y103.147 E0.09799
G1 X93.358 Y102.657 E0.02477
G1 X95.221 Y104.520 E0.13302
G1 X95.712 Y104.520 E0.02477
G1 X93.358 Y102.166 E0.16805
G1 X93.358 Y101.675 E0.02477
G1 X96.203 Y104.520 E0.20308
G1 X96.693 Y104.520 E0.02477
G1 X93.358 Y101.185 E0.23811
G1 X93.358 Y100.694 E0.02477
G1 X97.184 Y104.520 E0.27314
G1 X97.675 Y104.520 E0.02477
G1 X93.358 Y100.203 E0.30818
G1 X93.358 Y99.713 E0.02477
G1 X98.165 Y104.520 E0.34321
G1 X98.656 Y104.520 E0.02477
G1 X93.358 Y99.222 E0.37824
G1 X93.358 Y98.731 E0.02477
G1 X99.147 Y104.520 E0.41327
G1 X99.637 Y104.520 E0.02477
G1 X93.358 Y98.241 E0.44830
G1 X93.358 Y97.750 E0.02477
G1 X100.128 Y104.520 E0.48333
G1 X100.619 Y104.520 E0.02477
G1 X93.358 Y97.259 E0.51836
G1 X93.358 Y96.769 E0.02477
G1 X101.109 Y104.520 E0.55340
G1 X101.600 Y104.520 E0.02477
G1 X93.358 Y96.278 E0.58843
G1 X93.358 Y95.787 E0.02477
G1 X102.091 Y104.520 E0.62346
G1 X102.581 Y104.520 E0.02477
G1 X93.358 Y95.297 E0.65849
G1 X93.358 Y94.806 E0.02477
G1 X103.072 Y104.520 E0.69352
G1 X103.563 Y104.520 E0.02477
G1 X93.358 Y94.315 E0.72855
G1 X93.358 Y93.825 E0.02477
G1 X104.053 Y104.520 E0.76358
G1 X104.544 Y104.520 E0.02477
G1 X93.358 Y93.334 E0.79862
G1 X93.358 Y92.844 E0.02477
G1 X105.035 Y104.520 E0.83365
G1 X105.525 Y104.520 E0.02477
G1 X93.358 Y92.353 E0.86868
G1 X93.358 Y91.862 E0.02477
G1 X106.016 Y104.520 E0.90371
G1 X106.507 Y104.520 E0.02477
G1 X93.358 Y91.372 E0.93874
G1 X93.358 Y90.881 E0.02477
G1 X106.997 Y104.520 E0.97377
G1 X107.488 Y104.520 E0.02477
G1 X93.358 Y90.390 E1.00880
G1 X93.358 Y89.900 E0.02477
G1 X107.979 Y104.520 E1.04384
G1 X108.469 Y104.520 E0.02477
G1 X93.358 Y89.409 E1.07887
G1 X93.358 Y88.918 E0.02477
G1 X108.960 Y104.520 E1.11390
G1 X109.451 Y104.520 E0.02477
G1 X93.358 Y88.428 E1.14893
G1 X93.358 Y87.937 E0.02477
G1 X109.941 Y104.520 E1.18396
G1 X110.432 Y104.520 E0.02477
G1 X93.358 Y87.446 E1.21899
G1 X93.358 Y86.956 E0.02477
G1 X110.923 Y104.520 E1.25403
G1 X111.413 Y104.520 E0.02477
G1 X93.376 Y86.483 E1.28777
G1 X93.867 Y86.483 E0.02477
G1 X111.904 Y104.520 E1.28777
G1 X112.394 Y104.520 E0.02477
G1 X94.358 Y86.483 E1.28777
G1 X94.848 Y86.483 E0.02477
G1 X112.885 Y104.520 E1.28777
G1 X113.376 Y104.520 E0.02477
G1 X95.339 Y86.483 E1.28777
G1 X95.830 Y86.483 E0.02477
G1 X113.866 Y104.520 E1.28777
G1 X114.357 Y104.520 E0.02477
G1 X96.320 Y86.483 E1.28777
G1 X96.811 Y86.483 E0.02477
G1 X114.848 Y104.520 E1.28777
G1 X115.338 Y104.520 E0.02477
G1 X97.302 Y86.483 E1.28777
G1 X97.792 Y86.483 E0.02477
G1 X115.829 Y104.520 E1.28777
G1 X116.320 Y104.520 E0.02477
G1 X98.283 Y86.483 E1.28777
G1 X98.774 Y86.483 E0.02477
G1 X116.810 Y104.520 E1.28777
G1 X117.301 Y104.520 E0.02477
G1 X99.264 Y86.483 E1.28777
G1 X99.755 Y86.483 E0.02477
G1 X117.792 Y104.520 E1.28777
G1 X118.282 Y104.520 E0.02477
G1 X100.246 Y86.483 E1.28777
G1 X100.736 Y86.483 E0.02477
G1 X118.773 Y104.520 E1.28777
G1 X119.264 Y104.520 E0.02477
G1 X101.227 Y86.483 E1.28777
G1 X101.718 Y86.483 E0.02477
G1 X119.754 Y104.520 E1.28777
G1 X120.245 Y104.520 E0.02477
G1 X102.208 Y86.483 E1.28777
G1 X102.699 Y86.483 E0.02477
G1 X120.736 Y104.520 E1.28777
G1 X121.226 Y104.520 E0.02477
G1 X103.190 Y86.483 E1.28777
G1 X103.680 Y86.483 E0.02477
G1 X121.717 Y104.520 E1.28777
G1 X122.208 Y104.520 E0.02477
G1 X104.171 Y86.483 E1.28777
G1 X104.661 Y86.483 E0.02477
G1 X122.698 Y104.520 E1.28777
G1 X123.189 Y104.520 E0.02477
G1 X105.152 Y86.483 E1.28777
G1 X105.643 Y86.483 E0.02477
G1 X123.680 Y104.520 E1.28777
G1 X124.170 Y104.520 E0.02477
G1 X106.133 Y86.483 E1.28777
G1 X106.624 Y86.483 E0.02477
G1 X124.661 Y104.520 E1.28777
G1 X125.152 Y104.520 E0.02477
G1 X107.115 Y86.483 E1.28777
G1 X107.605 Y86.483 E0.02477
G1 X125.642 Y104.520 E1.28777
G1 X126.133 Y104.520 E0.02477
G1 X108.096 Y86.483 E1.28777
G1 X108.587 Y86.483 E0.02477
G1 X126.624 Y104.520 E1.28777
G1 X126.642 Y104.520 E0.00091
G1 X126.642 Y104.047 E0.02386
G1 X109.077 Y86.483 E1.25403
G1 X109.568 Y86.483 E0.02477
G1 X126.642 Y103.556 E1.21900
G1 X126.642 Y103.066 E0.02477
G1 X110.059 Y86.483 E1.18397
G1 X110.549 Y86.483 E0.02477
G1 X126.642 Y102.575 E1.14894
G1 X126.642 Y102.084 E0.02477
G1 X111.040 Y86.483 E1.11390
G1 X111.531 Y86.483 E0.02477
G1 X126.642 Y101.594 E1.07887
G1 X126.642 Y101.103 E0.02477
G1 X112.021 Y86.483 E1.04384
G1 X112.512 Y86.483 E0.02477
G1 X126.642 Y100.612 E1.00881
G1 X126.642 Y100.122 E0.02477
G1 X113.003 Y86.483 E0.97378
G1 X113.493 Y86.483 E0.02477
G1 X126.642 Y99.631 E0.93875
G1 X126.642 Y99.141 E0.02477
G1 X113.984 Y86.483 E0.90371
G1 X114.475 Y86.483 E0.02477
G1 X126.642 Y98.650 E0.86868
G1 X126.642 Y98.159 E0.02477
G1 X114.965 Y86.483 E0.83365
G1 X115.456 Y86.483 E0.02477
G1 X126.642 Y97.669 E0.79862
G1 X126.642 Y97.178 E0.02477
G1 X115.947 Y86.483 E0.76359
G1 X116.437 Y86.483 E0.02477
G1 X126.642 Y96.687 E0.72856
G1 X126.642 Y96.197 E0.02477
G1 X116.928 Y86.483 E0.69353
G1 X117.419 Y86.483 E0.02477
G1 X126.642 Y95.706 E0.65849
G1 X126.642 Y95.215 E0.02477
G1 X117.909 Y86.483 E0.62346
G1 X118.400 Y86.483 E0.02477
G1 X126.642 Y94.725 E0.58843
G1 X126.642 Y94.234 E0.02477
G1 X118.891 Y86.483 E0.55340
G1 X119.381 Y86.483 E0.02477
G1 X126.642 Y93.743 E0.51837
G1 X126.642 Y93.253 E0.02477
G1 X119.872 Y86.483 E0.48334
G1 X120.363 Y86.483 E0.02477
G1 X126.642 Y92.762 E0.44831
G1 X126.642 Y92.271 E0.02477
G1 X120.853 Y86.483 E0.41327
G1 X121.344 Y86.483 E0.02477
G1 X126.642 Y91.781 E0.37824
G1 X126.642 Y91.290 E0.02477
G1 X121.834 Y86.483 E0.34321
G1 X122.325 Y86.483 E0.02477
G1 X126.642 Y90.799 E0.30818
G1 X126.642 Y90.309 E0.02477
G1 X122.816 Y86.483 E0.27315
G1 X123.306 Y86.483 E0.02477
G1 X126.642 Y89.818 E0.23812
G1 X126.642 Y89.327 E0.02477
G1 X123.797 Y86.483 E0.20309
G1 X124.288 Y86.483 E0.02477
G1 X126.642 Y88.837 E0.16805
G1 X126.642 Y88.346 E0.02477
G1 X124.778 Y86.483 E0.13302
G1 X125.269 Y86.483 E0.02477
G1 X126.642 Y87.855 E0.09799
G1 X126.642 Y87.365 E0.02477
G1 X125.760 Y86.483 E0.06296
G1 X126.250 Y86.483 E0.02477
G1 X126.797 Y87.029 E0.03901
;BEFORE_LAYER_CHANGE
;0.65


G1 E-3.50000 F3600.00000
G1 F6240.000
G1 X126.250 Y86.483 E-0.42349
